icons/bookmark.svg

<svg xmlns="http://www.w3.org/2000/svg" xmlns:xlink="http://www.w3.org/1999/xlink" width="32" height="32" viewBox="0 0 32 32"><defs><linearGradient id="b" x1="-.004" y1=".107" x2="-.004" y2="16.004" gradientTransform="scale(1.007 .993)" gradientUnits="userSpaceOnUse"><stop offset="0" stop-color="#fff" stop-opacity="0"/><stop offset="1" stop-color="#fff" stop-opacity=".15"/></linearGradient><filter id="d" color-interpolation-filters="sRGB"><feGaussianBlur stdDeviation=".3" in="SourceGraphic"/></filter><path id="a" d="M15.097 5.525l-1.28-.212-3.025-.498-.773-1.56-.625-1.253L8.773.748c-.424-.856-1.12-.856-1.545 0l-.623 1.254-.62 1.253h-.002l-.773 1.56-3.025.498-1.28.212c-.96.157-1.197.85-.53 1.542l3.114 3.22-.478 3.12-.214 1.407c-.145.94.438 1.342 1.294.9l1.177-.617 1.17-.613h.004L8 13.668l1.557.816h.004l1.17.613 1.18.617c.855.44 1.436.04 1.293-.9l-.214-1.406-.475-3.12 3.11-3.218c.668-.693.43-1.387-.528-1.545z"/><clipPath id="c"><use xlink:href="#a" width="16" height="16" fill="#fff"/></clipPath></defs><use xlink:href="#a" width="16" height="16" transform="matrix(1.874 0 0 1.9 1.008 .799)" fill-opacity=".8"/><use xlink:href="#a" width="16" height="16" transform="matrix(1.874 0 0 1.9 1.008 .799)" fill="url(#b)"/><path d="M29.3 11.297l-2.4-.402-5.668-.947-1.45-2.962v-.002l-1.168-2.38-1.166-2.384c-.794-1.627-2.1-1.627-2.895 0l-1.168 2.383-1.163 2.38-.002.003-1.45 2.962-5.668.947-2.4.402c-1.798.3-2.242 2.427-.994 3.74l5.156 5.566L5.75 29.41c-.273 1.785 1.322 2.9 2.926 2.06L16 27.58l7.683 3.89c1.604.84 3.004-.8 2.828-2.078l-1.414-8.755 5.195-5.592c1.25-1.32.805-3.447-.99-3.748z" clip-path="url(#c)" fill="none" stroke-miterlimit="10" stroke-opacity=".7" filter="url(#d)"/></svg>

<?xml version="1.0" encoding="UTF-8" standalone="no"?>
<svg
   xmlns:dc="http://purl.org/dc/elements/1.1/"
   xmlns:cc="http://creativecommons.org/ns#"
   xmlns:rdf="http://www.w3.org/1999/02/22-rdf-syntax-ns#"
   xmlns:svg="http://www.w3.org/2000/svg"
   xmlns="http://www.w3.org/2000/svg"
   xmlns:xlink="http://www.w3.org/1999/xlink"
   xmlns:sodipodi="http://sodipodi.sourceforge.net/DTD/sodipodi-0.dtd"
   xmlns:inkscape="http://www.inkscape.org/namespaces/inkscape"
   version="1.1"
   id="toolbarButton-bookmark"
   x="0px"
   y="0px"
   width="32"
   height="32"
   viewBox="0 0 32 32"
   xml:space="preserve"
   inkscape:version="0.48.4 r9939"
   sodipodi:docname="toolbarButton-bookmark.svg"><metadata
     id="metadata22"><rdf:RDF><cc:Work
         rdf:about=""><dc:format>image/svg+xml</dc:format><dc:type
           rdf:resource="http://purl.org/dc/dcmitype/StillImage" /></cc:Work></rdf:RDF></metadata><sodipodi:namedview
     pagecolor="#ffffff"
     bordercolor="#666666"
     borderopacity="1"
     objecttolerance="10"
     gridtolerance="10"
     guidetolerance="10"
     inkscape:pageopacity="0"
     inkscape:pageshadow="2"
     inkscape:window-width="1440"
     inkscape:window-height="882"
     id="namedview20"
     showgrid="false"
     inkscape:zoom="7.375"
     inkscape:cx="16.198572"
     inkscape:cy="18.847741"
     inkscape:window-x="1920"
     inkscape:window-y="18"
     inkscape:window-maximized="1"
     inkscape:current-layer="toolbarButton-bookmark" /><defs
     id="defs3"><linearGradient
       id="gradientOverlay"
       x1="-0.0039951866"
       y1="0.10673992"
       x2="-0.0039951866"
       y2="16.004309"
       gradientTransform="scale(1.0069804,0.99306802)"
       gradientUnits="userSpaceOnUse"><stop
         id="transparentStop"
         style="stop-color:#ffffff;stop-opacity:0"
         offset="0" /><stop
         id="translucentStop"
         style="stop-color:#ffffff;stop-opacity:0.15"
         offset="1" /></linearGradient><filter
       id="blur"
       color-interpolation-filters="sRGB"><feGaussianBlur
         stdDeviation=".3"
         in="SourceGraphic"
         id="feGaussianBlur9" /></filter><path
       id="glyphShape"
       d="M 15.097,5.525 13.817,5.313 10.792,4.815 10.019,3.256 V 3.255 L 9.395,2.002 8.773,0.748 c -0.424,-0.856 -1.12,-0.856 -1.545,0 L 6.605,2.002 5.984,3.255 5.983,3.256 5.21,4.815 2.185,5.313 0.904,5.525 c -0.959,0.157 -1.196,0.851 -0.53,1.542 l 3.115,3.22 -0.477,3.121 -0.214,1.406 c -0.145,0.939 0.438,1.342 1.294,0.9 l 1.177,-0.617 1.172,-0.613 c 0.001,0 0.003,0 0.003,0 L 8,13.668 9.557,14.484 c 0,0 0.002,0 0.004,0 l 1.17,0.613 1.178,0.617 c 0.856,0.441 1.437,0.039 1.294,-0.9 L 12.989,13.408 12.515,10.287 15.626,7.07 C 16.293,6.377 16.055,5.683 15.097,5.525 z"
       inkscape:connector-curvature="0" /><clipPath
       id="mask"
       maskUnits="objectBoundingBox"
       maskContentUnits="objectBoundingBox"><use
         xlink:href="#glyphShape"
         style="fill:#ffffff"
         id="use13"
         x="0"
         y="0"
         width="16"
         height="16" /></clipPath></defs><use
     xlink:href="#glyphShape"
     style="fill-opacity:0.8"
     id="use15"
     x="0"
     y="0"
     width="16"
     height="16"
     transform="matrix(1.8739998,0,0,1.9002535,1.0075393,0.79857312)" /><use
     xlink:href="#glyphShape"
     style="fill:url(#gradientOverlay)"
     id="use17"
     x="0"
     y="0"
     width="16"
     height="16"
     transform="matrix(1.8739998,0,0,1.9002535,1.0075393,0.79857312)" /><path
     id="innerShadow"
     d="M 15.097,5.525 13.817,5.313 10.792,4.815 10.019,3.256 V 3.255 L 9.395,2.002 8.773,0.748 c -0.424,-0.856 -1.12,-0.856 -1.545,0 L 6.605,2.002 5.984,3.255 5.983,3.256 5.21,4.815 2.185,5.313 0.904,5.525 c -0.959,0.157 -1.196,1.277 -0.53,1.968 l 2.751,2.929 -0.595,4.635 c -0.145,0.939 0.706,1.525 1.562,1.084 L 8,14.094 l 4.1,2.047 c 0.856,0.441 1.603,-0.422 1.509,-1.094 L 12.854,10.44 15.626,7.497 C 16.293,6.803 16.055,5.683 15.097,5.525 z"
     style="fill:none;stroke-miterlimit:10;stroke-opacity:0.7;filter:url(#blur)"
     clip-path="url(#mask)"
     inkscape:connector-curvature="0"
     transform="matrix(1.8739998,0,0,1.9002535,1.0075393,0.79857312)" /></svg>
